sites/mastervinshop/images/icon.svg

<svg width="120" height="120" viewBox="0 0 120 120" fill="none" xmlns="http://www.w3.org/2000/svg">
<path fill-rule="evenodd" clip-rule="evenodd" d="M59.9989 27.4678C77.965 27.4678 92.5295 42.0323 92.5295 60C92.5295 77.9676 77.965 92.5321 59.9989 92.5321C42.0328 92.5321 27.4683 77.9676 27.4683 60C27.4683 42.0323 42.0312 27.4678 59.9989 27.4678Z" fill="#6C1B2A"/>
<path d="M59.994 100C38.1045 100 20.2005 82.2964 20.0017 60.3649C19.7998 38.3092 37.5795 20.2033 59.6352 20.0014C70.368 19.9129 80.4018 23.9746 88.0234 31.4595C95.6482 38.946 99.8993 48.9519 99.9956 59.6349C100.093 70.3211 96.024 80.4015 88.5391 88.0278C81.0526 95.6494 71.0452 99.9021 60.3621 99.9984L59.994 100V100ZM60.0064 26.1133H59.6911C41.0059 26.2842 25.9443 41.6238 26.1136 60.3075C26.1419 64.7594 27.0529 69.1616 28.7939 73.2591C30.5348 77.3566 33.0712 81.0682 36.2561 84.1789C42.7144 90.5207 51.2913 93.9331 60.3062 93.8865C69.3568 93.8042 77.8343 90.2007 84.1761 83.744C90.5179 77.2873 93.9645 68.743 93.8837 59.6924C93.8553 55.2407 92.9442 50.8388 91.2033 46.7416C89.4623 42.6443 86.926 38.933 83.7412 35.8225C77.4207 29.581 68.8892 26.091 60.0064 26.1133V26.1133Z" fill="#6C1B2A"/>
<path d="M70.9922 57.5615V66.7286H73.9542C75.6984 66.7286 76.9767 66.5577 77.7906 66.2191C78.588 65.8886 79.2699 65.3299 79.7508 64.6131C80.2432 63.8893 80.4932 63.1018 80.4932 62.2615C80.4932 61.1976 80.1438 60.2672 79.4526 59.4766C78.7598 58.6907 77.8077 58.147 76.5946 57.8535C75.7823 57.6609 74.3642 57.5599 72.3435 57.5599H70.9922V57.5615ZM70.9922 47.5277V55.1695H72.359C74.021 55.1695 75.2449 55.0142 76.0246 54.7098C76.8059 54.3991 77.4256 53.9114 77.8807 53.2482C78.3389 52.5834 78.5657 51.841 78.5657 51.0333C78.5657 49.9429 78.1836 49.084 77.421 48.4581C76.6506 47.8383 75.4328 47.5292 73.7616 47.5292H70.9922V47.5277ZM68.667 45.2041H73.367C75.262 45.2041 76.7173 45.4246 77.7316 45.872C78.7263 46.3014 79.5662 47.0243 80.1391 47.9439C80.7309 48.8681 81.0244 49.9041 81.0244 51.0333C81.0244 52.0957 80.765 53.0603 80.2494 53.9285C79.7352 54.7983 78.9757 55.5004 77.9801 56.044C79.2196 56.4634 80.1717 56.9573 80.8365 57.5273C81.5059 58.0927 82.0216 58.7792 82.3913 59.5869C82.764 60.3899 82.9504 61.2644 82.9504 62.2056C82.9504 64.1207 82.253 65.7438 80.8536 67.0672C79.4526 68.389 77.5763 69.0553 75.2169 69.0553H68.667V45.2025V45.2041ZM37.0435 69.0538L40.3503 45.2041H40.8426L50.5472 64.7684L60.1926 45.2041H60.5514L63.9841 69.0538H61.676L59.284 51.9792L50.8345 69.0553H50.2101L41.6783 51.8487L39.3919 69.0553H37.045L37.0435 69.0538ZM77.539 80.3674C77.6881 80.3674 77.8139 80.4202 77.9211 80.5258C77.9721 80.5763 78.0124 80.6366 78.0394 80.7031C78.0663 80.7696 78.0795 80.8409 78.078 80.9126C78.079 80.9838 78.0657 81.0545 78.0387 81.1204C78.0118 81.1864 77.9718 81.2462 77.9211 81.2962C77.8718 81.3476 77.8124 81.3884 77.7467 81.4159C77.6809 81.4434 77.6102 81.4571 77.539 81.4562C77.4678 81.457 77.3972 81.4431 77.3315 81.4156C77.2658 81.3881 77.2064 81.3475 77.1569 81.2962C77.106 81.2463 77.0656 81.1866 77.0384 81.1206C77.0112 81.0547 76.9976 80.9839 76.9985 80.9126C76.997 80.8405 77.0102 80.7688 77.0375 80.702C77.0647 80.6353 77.1054 80.5748 77.1569 80.5243C77.2068 80.4739 77.2664 80.4342 77.3321 80.4075C77.3977 80.3808 77.4681 80.3677 77.539 80.369V80.3674ZM74.2291 77.101V81.3397H73.6171V76.562H76.037V77.101H74.2291ZM66.1042 74.8799H70.1985L66.7426 81.5013L66.202 81.2248L69.1967 75.4903H66.1026V74.8783L66.1042 74.8799ZM62.9015 78.064C63.2804 78.064 63.602 77.932 63.8645 77.6664C63.9917 77.5411 64.0922 77.3913 64.1597 77.226C64.2273 77.0607 64.2605 76.8834 64.2574 76.7049C64.2604 76.526 64.2266 76.3484 64.1582 76.183C64.0898 76.0176 63.9883 75.8681 63.8598 75.7435C63.7348 75.6152 63.5849 75.5138 63.4193 75.4457C63.2537 75.3776 63.0759 75.3441 62.8968 75.3474C62.7182 75.3444 62.5409 75.378 62.3759 75.4461C62.2108 75.5142 62.0614 75.6154 61.9369 75.7435C61.8086 75.8684 61.7073 76.0183 61.6392 76.184C61.571 76.3496 61.5376 76.5274 61.5408 76.7065C61.5408 77.0792 61.6744 77.4008 61.94 77.6664C62.2041 77.932 62.5256 78.064 62.903 78.064H62.9015ZM62.1978 81.5013L61.6666 81.1596L63.414 78.5191C63.1795 78.5936 62.9589 78.6309 62.7539 78.6309C62.2413 78.6309 61.8064 78.4445 61.4476 78.0749C61.2714 77.8944 61.1331 77.6805 61.0408 77.4458C60.9485 77.211 60.9041 76.9602 60.9102 76.708C60.9017 76.3575 60.99 76.0114 61.1654 75.7078C61.3408 75.4042 61.5964 75.1548 61.9043 74.9871C62.2106 74.8131 62.5564 74.7208 62.9086 74.7189C63.2608 74.717 63.6076 74.8056 63.9157 74.9762C64.2186 75.1486 64.4547 75.3909 64.6286 75.7C64.7995 76.0106 64.888 76.3415 64.888 76.6925C64.888 76.9581 64.8337 77.2377 64.7265 77.5281C64.5771 77.8998 64.3848 78.2527 64.1534 78.5797L62.1963 81.5013H62.1978ZM57.9156 78.064C58.2946 78.064 58.6146 77.932 58.8786 77.6664C59.0059 77.5411 59.1063 77.3913 59.1739 77.226C59.2414 77.0607 59.2747 76.8834 59.2716 76.7049C59.2744 76.526 59.2406 76.3484 59.1722 76.1831C59.1039 76.0177 59.0023 75.8681 58.874 75.7435C58.749 75.6152 58.5991 75.5138 58.4335 75.4457C58.2678 75.3776 58.09 75.3441 57.911 75.3474C57.7324 75.3443 57.5551 75.3778 57.39 75.446C57.2249 75.5141 57.0755 75.6153 56.9511 75.7435C56.8224 75.8682 56.7208 76.0181 56.6524 76.1837C56.584 76.3494 56.5503 76.5273 56.5534 76.7065C56.5534 77.0792 56.687 77.4008 56.9526 77.6664C57.2182 77.932 57.5397 78.064 57.9156 78.064V78.064ZM57.2105 81.5013L56.6793 81.1596L58.4266 78.5191C58.2137 78.5902 57.991 78.6279 57.7665 78.6309C57.254 78.6309 56.819 78.4445 56.4618 78.0749C56.2856 77.8944 56.1472 77.6805 56.0549 77.4458C55.9626 77.211 55.9182 76.9602 55.9244 76.708C55.9157 76.3575 56.0039 76.0113 56.1793 75.7077C56.3547 75.4041 56.6105 75.1547 56.9185 74.9871C57.2247 74.813 57.5705 74.7206 57.9227 74.7187C58.275 74.7168 58.6218 74.8055 58.9299 74.9762C59.2328 75.1486 59.4688 75.3909 59.6413 75.7C59.8137 76.0106 59.9006 76.3415 59.9006 76.6925C59.9006 76.9581 59.8463 77.2377 59.7407 77.5281C59.5912 77.8998 59.3989 78.2527 59.1675 78.5797L57.2105 81.5013V81.5013ZM52.1625 74.8783H53.4392V81.3397H52.7916V75.5089H51.7742L52.1625 74.8783V74.8783ZM47.5106 77.5545L47.0229 77.8574C46.6004 77.2983 46.0226 77.0202 45.2911 77.0202C44.707 77.0202 44.2193 77.2066 43.8341 77.5809C43.4489 77.9537 43.2548 78.4072 43.2548 78.9416C43.2548 79.2895 43.3433 79.6157 43.5219 79.9216C43.699 80.2276 43.9429 80.4653 44.2535 80.6361C44.5626 80.8054 44.9105 80.8893 45.2957 80.8893C46.0009 80.8893 46.5771 80.6097 47.0229 80.0521L47.5106 80.3736C47.28 80.7178 46.9614 80.994 46.588 81.1735C46.1755 81.368 45.7237 81.4647 45.2678 81.4562C44.5098 81.4562 43.8823 81.217 43.3821 80.7386C43.1414 80.5161 42.9503 80.2454 42.8213 79.944C42.6923 79.6426 42.6283 79.3175 42.6335 78.9897C42.6312 78.5371 42.7526 78.0924 42.9845 77.7036C43.2175 77.3076 43.5375 77 43.9475 76.7779C44.3686 76.5527 44.8399 76.4378 45.3175 76.444C45.6343 76.444 45.9403 76.4921 46.2354 76.5884C46.5305 76.6847 46.779 76.8105 46.9856 76.9643C47.1922 77.1196 47.3662 77.3153 47.5106 77.5545V77.5545Z" fill="white"/>
</svg>

<svg width="120" height="120" fill="none" xmlns="http://www.w3.org/2000/svg"><path fill-rule="evenodd" clip-rule="evenodd" d="M59.999 27.468c17.966 0 32.53 14.564 32.53 32.532 0 17.968-14.564 32.532-32.53 32.532S27.469 77.968 27.469 60c0-17.968 14.562-32.532 32.53-32.532Z" fill="#6C1B2A"/><path d="M59.994 100c-21.89 0-39.793-17.704-39.992-39.635C19.8 38.309 37.58 20.203 59.635 20c10.733-.088 20.767 3.974 28.388 11.458 7.625 7.487 11.876 17.493 11.973 28.176.097 10.686-3.972 20.767-11.457 28.393-7.486 7.621-17.494 11.874-28.177 11.97l-.368.002Zm.012-73.887h-.315c-18.685.171-33.747 15.51-33.577 34.194A33.667 33.667 0 0 0 36.256 84.18c6.458 6.342 15.035 9.754 24.05 9.707 9.05-.082 17.528-3.685 23.87-10.142 6.342-6.457 9.788-15.001 9.708-24.052a33.666 33.666 0 0 0-10.143-23.87 33.659 33.659 0 0 0-23.735-9.709Z" fill="#6C1B2A"/><path d="M70.992 57.562v9.167h2.962c1.744 0 3.023-.171 3.837-.51a4.38 4.38 0 0 0 1.96-1.606 4.111 4.111 0 0 0 .742-2.352c0-1.063-.35-1.994-1.04-2.784-.693-.786-1.645-1.33-2.858-1.623-.813-.193-2.23-.294-4.251-.294h-1.352v.002Zm0-10.034v7.642h1.367c1.662 0 2.886-.156 3.666-.46a3.975 3.975 0 0 0 1.856-1.462 3.823 3.823 0 0 0 .685-2.215c0-1.09-.382-1.949-1.145-2.575-.77-.62-1.988-.929-3.66-.929h-2.769v-.001Zm-2.325-2.324h4.7c1.895 0 3.35.22 4.365.668a5.321 5.321 0 0 1 2.407 2.072c.592.924.885 1.96.885 3.09 0 1.062-.259 2.026-.775 2.895-.514.87-1.273 1.571-2.269 2.115 1.24.42 2.192.913 2.856 1.483a5.835 5.835 0 0 1 1.555 2.06c.373.803.56 1.677.56 2.619 0 1.915-.698 3.538-2.097 4.861-1.401 1.322-3.278 1.988-5.637 1.988h-6.55V45.202v.002Zm-31.623 23.85 3.306-23.85h.493l9.704 19.564 9.646-19.564h.358l3.433 23.85h-2.308l-2.392-17.075-8.45 17.076h-.624L41.678 51.85l-2.286 17.206h-2.347l-.002-.001Zm40.495 11.313a.52.52 0 0 1 .382.159.53.53 0 0 1 .157.387.528.528 0 0 1-.157.383.52.52 0 0 1-.382.16.522.522 0 0 1-.382-.16.527.527 0 0 1-.158-.383.528.528 0 0 1 .158-.389.524.524 0 0 1 .382-.155v-.002Zm-3.31-3.266v4.239h-.612v-4.778h2.42v.539h-1.808Zm-8.125-2.221h4.094l-3.455 6.62-.541-.276 2.995-5.735h-3.094v-.612l.001.002Zm-3.203 3.184c.38 0 .701-.132.963-.398a1.317 1.317 0 0 0 .393-.961 1.308 1.308 0 0 0-.397-.962 1.312 1.312 0 0 0-.963-.396 1.308 1.308 0 0 0-.96.397 1.31 1.31 0 0 0-.396.963c0 .372.133.694.399.96.264.265.586.397.963.397h-.002Zm-.703 3.437-.531-.341 1.747-2.64a2.188 2.188 0 0 1-.66.11c-.513 0-.948-.185-1.306-.555a1.892 1.892 0 0 1-.538-1.367 1.907 1.907 0 0 1 .994-1.72 2.056 2.056 0 0 1 2.012-.012c.303.173.539.415.713.724.17.31.259.641.259.992 0 .266-.054.546-.162.836a5.084 5.084 0 0 1-.573 1.052l-1.957 2.92h.002Zm-4.282-3.437c.379 0 .699-.132.963-.398a1.318 1.318 0 0 0 .393-.961 1.311 1.311 0 0 0-.398-.962 1.312 1.312 0 0 0-.963-.396 1.305 1.305 0 0 0-.96.397 1.308 1.308 0 0 0-.398.963c0 .372.134.694.4.96.265.265.587.397.963.397Zm-.705 3.437-.532-.341 1.748-2.64a2.176 2.176 0 0 1-.66.11c-.513 0-.948-.185-1.305-.555a1.892 1.892 0 0 1-.538-1.367 1.905 1.905 0 0 1 .995-1.72 2.054 2.054 0 0 1 2.01-.012c.304.173.54.415.712.724.173.31.26.641.26.992 0 .266-.055.546-.16.836-.15.372-.342.725-.574 1.052l-1.956 2.92Zm-5.048-6.623h1.276v6.462h-.647v-5.831h-1.018l.389-.63Zm-4.652 2.677-.488.302c-.423-.559-1-.837-1.732-.837-.584 0-1.072.187-1.457.56-.385.374-.58.827-.58 1.362 0 .348.09.674.268.98.177.306.42.543.732.714.309.17.657.253 1.042.253.705 0 1.281-.28 1.727-.837l.488.322c-.231.344-.55.62-.923.8a2.966 2.966 0 0 1-1.32.282c-.758 0-1.386-.239-1.886-.717a2.331 2.331 0 0 1-.748-1.75 2.483 2.483 0 0 1 .35-1.285c.233-.396.553-.704.963-.926.422-.225.893-.34 1.37-.334.317 0 .623.048.918.144.296.097.544.223.75.376.207.156.381.351.526.59Z" fill="#fff"/></svg>
